icons/evolvere-blue-folders-flat-vivid-dark-fallback/places/64/folder-brown.svg

<svg xmlns="http://www.w3.org/2000/svg" viewBox="0 0 64 64"><path d="m3 6v58h57l4-4v-59l-1-1h-26l-5 5h-28" fill="#8b5737"/><path d="m7 13h51v31h-51z" fill="#ddd5d1"/><path d="m58 13v51h2l4-4v-59l-1-1v18z" fill="#4e3636" fill-opacity=".432"/><path d="m30 13l4 4h2l-4-4z" fill="#3e4959" fill-opacity=".23" color="#000"/><path d="m0 13v50l1 1h59l1-1v-45l-1-1h-26l-5-5h-28" fill="#b26e43"/></svg>

<?xml version="1.0" encoding="UTF-8" standalone="no"?>
<!-- Created with Inkscape (http://www.inkscape.org/) -->

<svg
   xmlns:dc="http://purl.org/dc/elements/1.1/"
   xmlns:cc="http://creativecommons.org/ns#"
   xmlns:rdf="http://www.w3.org/1999/02/22-rdf-syntax-ns#"
   xmlns:svg="http://www.w3.org/2000/svg"
   xmlns="http://www.w3.org/2000/svg"
   xmlns:sodipodi="http://sodipodi.sourceforge.net/DTD/sodipodi-0.dtd"
   xmlns:inkscape="http://www.inkscape.org/namespaces/inkscape"
   id="svg13094"
   height="64"
   width="64"
   version="1.1"
   inkscape:version="0.48.4 r9939"
   sodipodi:docname="folder-brown.svg"
   inkscape:export-filename="folder.png"
   inkscape:export-xdpi="90"
   inkscape:export-ydpi="90">
  <sodipodi:namedview
     pagecolor="#ffffff"
     bordercolor="#666666"
     borderopacity="1"
     objecttolerance="10"
     gridtolerance="10"
     guidetolerance="10"
     inkscape:pageopacity="0"
     inkscape:pageshadow="2"
     inkscape:window-width="1920"
     inkscape:window-height="1022"
     id="namedview46"
     showgrid="true"
     inkscape:snap-bbox="true"
     inkscape:bbox-paths="true"
     inkscape:bbox-nodes="true"
     inkscape:snap-bbox-edge-midpoints="true"
     inkscape:snap-bbox-midpoints="true"
     inkscape:snap-nodes="true"
     inkscape:object-paths="true"
     inkscape:snap-intersection-paths="true"
     inkscape:object-nodes="true"
     inkscape:snap-smooth-nodes="true"
     inkscape:snap-midpoints="true"
     inkscape:snap-object-midpoints="true"
     inkscape:snap-center="true"
     fit-margin-top="0"
     fit-margin-left="0"
     fit-margin-right="0"
     fit-margin-bottom="0"
     inkscape:zoom="10.429825"
     inkscape:cx="38.051207"
     inkscape:cy="33.362944"
     inkscape:window-x="-5"
     inkscape:window-y="23"
     inkscape:window-maximized="1"
     inkscape:current-layer="svg13094"
     showguides="true"
     inkscape:guide-bbox="true"
     inkscape:snap-page="true">
    <inkscape:grid
       type="xygrid"
       id="grid3023"
       empspacing="5"
       visible="true"
       enabled="true"
       snapvisiblegridlinesonly="true"
       originx="-80px"
       originy="-75px" />
  </sodipodi:namedview>
  <defs
     id="defs11" />
  <metadata
     id="metadata13099">
    <rdf:RDF>
      <cc:Work
         rdf:about="">
        <dc:format>image/svg+xml</dc:format>
        <dc:type
           rdf:resource="http://purl.org/dc/dcmitype/StillImage" />
        <dc:title />
      </cc:Work>
    </rdf:RDF>
  </metadata>
  <path
     sodipodi:nodetypes="cccccccccc"
     inkscape:connector-curvature="0"
     id="path3833"
     d="m 3,6 -10e-8,58.000001 L 60,64 64,60 64,1 63,0 37,0 32,4.9999999 4,5 Z"
     style="fill:#8b5737;fill-opacity:1;fill-rule:nonzero;stroke:none" />
  <path
     style="fill:#ddd5d1;fill-opacity:1;fill-rule:nonzero"
     inkscape:connector-curvature="0"
     id="path3920"
     d="m 7,13 51,0 0,31 -51,0 z"
     sodipodi:nodetypes="ccccc" />
  <path
     style="fill:#4e3636;fill-opacity:0.43171805"
     inkscape:connector-curvature="0"
     d="m 58,13 0,51 2,0 4,-4 0,-59 -1,-1 0,18 z"
     id="path3802"
     sodipodi:nodetypes="cccccccc" />
  <path
     sodipodi:nodetypes="ccccc"
     inkscape:connector-curvature="0"
     id="path3982"
     d="m 30,13 4,4 2,0 -4,-4 z"
     style="color:#000000;display:inline;overflow:visible;visibility:visible;fill:#3e4959;fill-opacity:0.22968199;fill-rule:nonzero;stroke-width:1;stroke-linecap:butt;stroke-linejoin:miter;stroke-miterlimit:4;stroke-dasharray:none;stroke-dashoffset:0;stroke-opacity:1;marker:none;enable-background:accumulate" />
  <path
     inkscape:export-ydpi="90"
     inkscape:export-xdpi="90"
     sodipodi:nodetypes="ccccccccccc"
     style="fill:#b26e43;fill-opacity:1;fill-rule:nonzero"
     inkscape:connector-curvature="0"
     d="m 0,13 0,50 1,1 59,0 1,-1 0,-45 -1,-1 -26,1e-6 -5,-5 L 1,12 Z"
     id="path3916" />
</svg>
